X: 48
T: 44. OLD MARCH
B: Sam Bayard, "Hill Country Tunes" 1944 #44
N: Whistled by F.P. Provance, Point Marion, PA, Sept 19, 1943. Learned from Sam Waggle, fifer, of Dunbar.
R: jig-time march
M: 6/8
L: 1/8
Z: 2010 John Chambers <jc:trillian.mit.edu>
P: Leisurely
K: Edor
A |\
B2E EDE | B2c d2B | A2F FEF | DEF AFA |
B2E EDE | B2c d2A | Bcd F2"a."A | E3- E2 :: A |
~B2"b."B B<cA | B2c d2e | d2B BAF | DEF AFA |
~B2"b."B BcA | B2c d2A | Bcd F2"a."A | E3- E2 :|
P: Var:
"a."F || "b."c |]

%%sep 2 1 500
%%sep 1 1 500

